!!!OTL: Einladung auf's Land.
!!!OTL-incipit:KOMMT FREUNDE KOMMT AUFS LAND
!!!COM: H. G. Naegeli
!!!ARE: Europa, Mitteleuropa, Deutschland
!!!SCT: F0323
!!!TXL: @@DE
!!!YEM: Copyright 1995, estate of Helmut Schaffrath.
**kern	**text
*ICvox	*
*clefG2	*
*M2/4	*
*k[]	*
*C:	*
!LO:TX:a:t=P:only the highest voice encoded:problem	!
{8cc/	1._Kommt,
=1	=1
8g	Freun-
8e	-de,
8f	kommt
8a	auf's
=2	=2
4.g}	Land!
{8e	Der
=3	=3
8.f	Win-
16e	-ter
8f	iſt
8g	ver-
=4	=4
4e	-gan-
8c}	-gen
{8g	und
=5	=5
8.cc/	Thal
16b/	und
8cc/	Hü-
8dd/	-gel
=6	=6
4b/	prangen
8g}	.
{8dd/	im
=7	=7
(8eeL	bun-
16dd	.
16ee	.
8ffJ)	.
8dd	-ten
=8	=8
8.ee	Lenʒ-
16dd/	-gewand,
8cc/}	.
{8cc/	im
=9	=9
8b/	bun-
8cc/	-ten
16ee/L	Lenʒ-
16ddJ	.
16cc/L	-ge-
16bJ	.
=10	=10
4cc/	-wand.
8r}	.
==	==
!!!AGN: Jugend - Lied, Natur, Wander - Lied
!!!ONB: ESAC (Essen Associative Code) Database: FINK
!!!AMT: simple duple
!!!AIN: vox
!!!EED: Helmut Schaffrath
!!!EEV: 1.0
!!!GTL: Jugendlieder
!!Text: J. M. Miller
!!!source: Musikalischer Hausschatz der Deutschen. Eine Sammlung von über 1000 Liedern und Gesängen mit Singstimmen und Klavierbegleitung. Leipzig, Litterarisches Verlags-Haus.
!!!page: 192
!!!URL-scan: https://www.digitale-sammlungen.de/en/view/bsb11144622?page=190,191
!!!ENC: Anna Maria Matuszewska
!!!EEV: 2024/07/30
*-	*-